icons/yandex_zen.svg

<svg width="27" height="27" viewBox="0 0 27 27" fill="none" xmlns="http://www.w3.org/2000/svg">
<path d="M16.0554 16.0554C13.9732 18.2038 13.8218 20.8821 13.642 26.75C19.1123 26.75 22.8886 26.7311 24.8382 24.8382C26.7311 22.8886 26.75 18.9325 26.75 13.642C20.8821 13.8313 18.2038 13.9732 16.0554 16.0554ZM0.25 13.642C0.25 18.9325 0.268929 22.8886 2.16179 24.8382C4.11143 26.7311 7.88768 26.75 13.358 26.75C13.1688 20.8821 13.0268 18.2038 10.9446 16.0554C8.79625 13.9732 6.11786 13.8218 0.25 13.642ZM13.358 0.25C7.89714 0.25 4.11143 0.268929 2.16179 2.16179C0.268929 4.11143 0.25 8.0675 0.25 13.358C6.11786 13.1688 8.79625 13.0268 10.9446 10.9446C13.0268 8.79625 13.1782 6.11786 13.358 0.25ZM16.0554 10.9446C13.9732 8.79625 13.8218 6.11786 13.642 0.25C19.1123 0.25 22.8886 0.268929 24.8382 2.16179C26.7311 4.11143 26.75 8.0675 26.75 13.358C20.8821 13.1688 18.2038 13.0268 16.0554 10.9446Z" fill="#2C3036"/>
<path d="M26.75 13.642V13.358C20.8821 13.1688 18.2038 13.0268 16.0554 10.9446C13.9732 8.79625 13.8218 6.11786 13.642 0.25H13.358C13.1688 6.11786 13.0268 8.79625 10.9446 10.9446C8.79625 13.0268 6.11786 13.1782 0.25 13.358V13.642C6.11786 13.8313 8.79625 13.9732 10.9446 16.0554C13.0268 18.2038 13.1782 20.8821 13.358 26.75H13.642C13.8313 20.8821 13.9732 18.2038 16.0554 16.0554C18.2038 13.9732 20.8821 13.8218 26.75 13.642Z" fill="#F4F4F4"/>
</svg>

<svg width="27" height="27" fill="none" xmlns="http://www.w3.org/2000/svg"><path d="M16.055 16.055c-2.082 2.149-2.233 4.827-2.413 10.695 5.47 0 9.247-.019 11.196-1.912 1.893-1.95 1.912-5.905 1.912-11.196-5.868.19-8.546.331-10.695 2.413ZM.25 13.642c0 5.29.019 9.247 1.912 11.196 1.95 1.893 5.726 1.912 11.196 1.912-.19-5.868-.331-8.546-2.413-10.695C8.796 13.973 6.118 13.822.25 13.642ZM13.358.25c-5.46 0-9.247.019-11.196 1.912C.269 4.112.25 8.068.25 13.358c5.868-.19 8.546-.331 10.695-2.413C13.027 8.796 13.178 6.118 13.358.25Zm2.697 10.695C13.973 8.796 13.822 6.118 13.642.25c5.47 0 9.247.019 11.196 1.912 1.893 1.95 1.912 5.906 1.912 11.196-5.868-.19-8.546-.331-10.695-2.413Z" fill="#2C3036"/><path d="M26.75 13.642v-.284c-5.868-.19-8.546-.331-10.695-2.413C13.973 8.796 13.822 6.118 13.642.25h-.284c-.19 5.868-.331 8.546-2.413 10.695C8.796 13.027 6.118 13.178.25 13.358v.284c5.868.19 8.546.331 10.695 2.413 2.082 2.149 2.233 4.827 2.413 10.695h.284c.19-5.868.331-8.546 2.413-10.695 2.149-2.082 4.827-2.233 10.695-2.413Z" fill="#F4F4F4"/></svg>
